images/online-shop.svg

<?xml version="1.0" encoding="iso-8859-1"?>
<!-- Generator: Adobe Illustrator 19.0.0, SVG Export Plug-In . SVG Version: 6.00 Build 0)  -->
<svg version="1.1" id="Layer_1" xmlns="http://www.w3.org/2000/svg" xmlns:xlink="http://www.w3.org/1999/xlink" x="0px" y="0px"
	 viewBox="0 0 512 512" style="enable-background:new 0 0 512 512;" xml:space="preserve">
<g>
	<g>
		<g>
			<path d="M469.135,42.666H42.867C19.23,42.666,0,61.897,0,85.533v234.266c0,23.638,19.23,42.869,42.867,42.869h145.001
				l-14.562,43.685c-13.774,3.57-23.972,16.104-23.972,30.978v10.67h-32.001c-5.89,0-10.667,4.777-10.667,10.667
				c0,5.89,4.777,10.667,10.667,10.667h48.686h0.002h179.961h48.687c5.89,0,10.667-4.777,10.667-10.667
				c0-5.89-4.777-10.667-10.667-10.667h-32v-10.67c0-14.873-10.202-27.407-23.975-30.978l-14.56-43.685h145.001
				c23.635,0,42.864-19.23,42.864-42.869V85.533C512,61.897,492.771,42.666,469.135,42.666z M330.667,426.665
				c5.883,0,10.669,4.784,10.669,10.666v10.67H170.668v-10.67c0-5.882,4.784-10.666,10.666-10.666H330.667z M196.133,405.332
				l14.222-42.664h91.29l14.222,42.664H196.133z M490.667,319.799c0,11.874-9.659,21.535-21.532,21.535h-159.8H202.668h-159.8
				c-11.873,0-21.534-9.661-21.534-21.535v-10.465h405.2c5.891,0,10.667-4.777,10.667-10.667c0-5.89-4.775-10.667-10.667-10.667
				h-405.2V85.533c0-11.874,9.661-21.534,21.534-21.534h426.267c11.804,0,21.41,9.551,21.521,21.331H87.174
				c-5.89,0-10.667,4.777-10.667,10.667c0,5.891,4.777,10.667,10.667,10.667h403.493V319.799z"/>
			<path d="M192.803,217.783h0.01c0.822,4.726,4.782,8.459,9.78,8.793l81.336,5.412l0.002-0.022
				c5.571,0.379,10.538-3.654,11.248-9.267l6.827-53.863l2.046-16.151l14.192,0.07c5.864,0.021,10.641-4.719,10.662-10.583
				c0.025-5.865-4.713-10.644-10.58-10.665l-23.589-0.113c-5.429-0.022-9.923,4.036-10.581,9.293l-3.231,25.482l-5.565,43.911
				l-63.025-4.197l-5.886-33.016h42.355c5.891,0,10.668-4.775,10.668-10.665c0-5.893-4.777-10.669-10.668-10.669h-55.083v0.009
				c-0.606,0-1.218,0.052-1.835,0.156c-5.799,1.012-9.678,6.538-8.668,12.335L192.803,217.783z"/>
			<path d="M219.383,241.94c-5.874,0-10.666,4.792-10.666,10.665c0,5.876,4.792,10.668,10.666,10.668
				c5.874,0,10.666-4.792,10.666-10.668C230.048,246.731,225.257,241.94,219.383,241.94z"/>
			<path d="M273.76,241.94c-5.874,0-10.666,4.792-10.666,10.665c0,5.876,4.792,10.668,10.666,10.668s10.664-4.792,10.664-10.668
				C284.424,246.731,279.634,241.94,273.76,241.94z"/>
			<path d="M54.465,85.331h-4.791c-5.89,0-10.667,4.777-10.667,10.667c0,5.891,4.777,10.667,10.667,10.667h4.791
				c5.89,0,10.667-4.775,10.667-10.667C65.132,90.107,60.356,85.331,54.465,85.331z"/>
			<path d="M457.335,309.334h4.511c5.89,0,10.667-4.777,10.667-10.667c0-5.89-4.777-10.667-10.667-10.667h-4.511
				c-5.89,0-10.667,4.777-10.667,10.667C446.668,304.558,451.445,309.334,457.335,309.334z"/>
		</g>
	</g>
</g>
<g>
</g>
<g>
</g>
<g>
</g>
<g>
</g>
<g>
</g>
<g>
</g>
<g>
</g>
<g>
</g>
<g>
</g>
<g>
</g>
<g>
</g>
<g>
</g>
<g>
</g>
<g>
</g>
<g>
</g>
</svg>

<svg width="512" height="512" viewBox="0 0 512 512" fill="none" xmlns="http://www.w3.org/2000/svg">
<path d="M469.135 42.666H42.867C19.23 42.666 0 61.897 0 85.533V319.799C0 343.437 19.23 362.668 42.867 362.668H187.868L173.306 406.353C159.532 409.923 149.334 422.457 149.334 437.331V448.001H117.333C111.443 448.001 106.666 452.778 106.666 458.668C106.666 464.558 111.443 469.335 117.333 469.335H166.019H166.021H345.982H394.669C400.559 469.335 405.336 464.558 405.336 458.668C405.336 452.778 400.559 448.001 394.669 448.001H362.669V437.331C362.669 422.458 352.467 409.924 338.694 406.353L324.134 362.668H469.135C492.77 362.668 511.999 343.438 511.999 319.799V85.533C512 61.897 492.771 42.666 469.135 42.666ZM330.667 426.665C336.55 426.665 341.336 431.449 341.336 437.331V448.001H170.668V437.331C170.668 431.449 175.452 426.665 181.334 426.665H330.667ZM196.133 405.332L210.355 362.668H301.645L315.867 405.332H196.133ZM490.667 319.799C490.667 331.673 481.008 341.334 469.135 341.334H309.335H202.668H42.868C30.995 341.334 21.334 331.673 21.334 319.799V309.334H426.534C432.425 309.334 437.201 304.557 437.201 298.667C437.201 292.777 432.426 288 426.534 288H21.334V85.533C21.334 73.659 30.995 63.999 42.868 63.999H469.135C480.939 63.999 490.545 73.55 490.656 85.33H87.174C81.284 85.33 76.507 90.107 76.507 95.997C76.507 101.888 81.284 106.664 87.174 106.664H490.667V319.799V319.799Z" fill="white"/>
<path d="M192.803 217.783H192.813C193.635 222.509 197.595 226.242 202.593 226.576L283.929 231.988L283.931 231.966C289.502 232.345 294.469 228.312 295.179 222.699L302.006 168.836L304.052 152.685L318.244 152.755C324.108 152.776 328.885 148.036 328.906 142.172C328.931 136.307 324.193 131.528 318.326 131.507L294.737 131.394C289.308 131.372 284.814 135.43 284.156 140.687L280.925 166.169L275.36 210.08L212.335 205.883L206.449 172.867H248.804C254.695 172.867 259.472 168.092 259.472 162.202C259.472 156.309 254.695 151.533 248.804 151.533H193.721V151.542C193.115 151.542 192.503 151.594 191.886 151.698C186.087 152.71 182.208 158.236 183.218 164.033L192.803 217.783Z" fill="white"/>
<path d="M219.383 241.94C213.509 241.94 208.717 246.732 208.717 252.605C208.717 258.481 213.509 263.273 219.383 263.273C225.257 263.273 230.049 258.481 230.049 252.605C230.048 246.731 225.257 241.94 219.383 241.94Z" fill="white"/>
<path d="M273.76 241.94C267.886 241.94 263.094 246.732 263.094 252.605C263.094 258.481 267.886 263.273 273.76 263.273C279.634 263.273 284.424 258.481 284.424 252.605C284.424 246.731 279.634 241.94 273.76 241.94Z" fill="white"/>
<path d="M54.465 85.331H49.674C43.784 85.331 39.007 90.108 39.007 95.998C39.007 101.889 43.784 106.665 49.674 106.665H54.465C60.355 106.665 65.132 101.89 65.132 95.998C65.132 90.107 60.356 85.331 54.465 85.331Z" fill="white"/>
<path d="M457.335 309.334H461.846C467.736 309.334 472.513 304.557 472.513 298.667C472.513 292.777 467.736 288 461.846 288H457.335C451.445 288 446.668 292.777 446.668 298.667C446.668 304.558 451.445 309.334 457.335 309.334Z" fill="white"/>
</svg>
